frontend/public/svg/interface/layer.svg

<svg width="157" height="150" viewBox="0 0 157 150" fill="none" xmlns="http://www.w3.org/2000/svg">
<g clip-path="url(#clip0)">
<path d="M3.85747 101.836C2.04502 103.067 1.14325 104.225 1.01509 105.481C0.894688 106.668 1.48249 107.912 2.81334 109.284C5.04277 111.675 7.57088 113.766 10.3349 115.505C20.9714 121.903 31.6915 128.157 42.1991 134.093C48.3628 137.575 54.707 140.969 60.8415 144.252C63.4889 145.668 66.1341 147.087 68.7777 148.511C70.1125 149.325 71.6271 149.795 73.1878 149.881C74.1885 149.879 75.1711 149.612 76.0353 149.106C80.6959 146.449 85.7526 143.508 91.4955 140.112L99.1809 135.566C116.529 125.307 134.467 114.703 152.077 104.212C154.642 102.684 156.112 100.427 156.111 98.0195C156.111 95.5662 154.593 93.261 151.952 91.6942C149.682 90.3468 147.351 89.0318 144.883 87.6429C144 87.1448 143.092 86.6325 142.15 86.0994C143.236 85.3026 144.295 84.5286 145.328 83.7766C148.102 81.75 150.722 79.8364 153.319 77.8974C155.615 76.1831 156.808 74.0091 156.675 71.776C156.54 69.4825 155.033 67.3961 152.436 65.9C150.151 64.5837 147.874 63.255 145.51 61.8738L143.05 60.4394C143.904 59.7901 144.749 59.151 145.584 58.522C148.063 56.6512 150.405 54.8856 152.724 53.0161C154.65 51.4642 155.617 49.5602 155.445 47.6544C155.268 45.6842 153.908 43.9135 151.614 42.6681C148.521 40.9882 145.74 39.4576 143.036 37.7381L141.861 36.9895C122.483 24.6583 102.446 11.9077 81.2972 1.79471C76.3939 -0.550739 72.1146 -0.291026 67.8333 2.61092C62.4118 6.2856 57.0178 9.83813 51.5093 13.455C45.712 17.2646 39.9127 21.0685 34.1111 24.8668C24.6961 31.0356 14.96 37.4181 5.40256 43.722C2.83017 45.42 1.56073 47.0408 1.40732 48.8252C1.25844 50.5629 2.22817 52.3895 4.37139 54.4096C6.85601 56.6621 9.46302 58.7749 12.1805 60.7383C13.2323 61.5285 14.2836 62.3186 15.3199 63.1245C16.008 63.6596 16.7316 64.1505 17.4987 64.6707L17.887 64.9357C16.6054 65.9046 15.3444 66.852 14.1042 67.7786C10.7544 70.2883 7.58979 72.6598 4.4847 75.1637C2.30588 76.9169 1.29603 78.4838 1.30444 80.087C1.31351 81.702 2.35696 83.2721 4.58821 85.0312C6.33593 86.4084 8.22084 87.6474 10.0436 88.8461C11.1441 89.5688 12.2794 90.3162 13.3675 91.0825C14.1016 91.6227 14.8058 92.2026 15.4772 92.8195C15.6312 92.9565 15.7872 93.0955 15.9478 93.2357C14.815 94.0461 13.7037 94.8461 12.6141 95.6344C9.6106 97.8071 6.77227 99.8559 3.85747 101.836ZM30.6557 101.044C36.2873 104.187 42.113 107.437 47.8636 110.553C50.8412 112.165 53.892 113.74 56.8456 115.264C60.6647 117.234 64.6134 119.271 68.4185 121.401C72.2641 123.552 76.146 123.69 81.0079 121.849C93.9067 116.965 105.541 110.059 115.214 103.949C119.848 101.021 124.34 98.0656 129.101 94.9377C131.114 93.6143 133.149 92.2799 135.205 90.9338L146.32 97.787C143.49 99.5351 140.683 101.273 137.898 103C130.915 107.327 124.321 111.414 117.547 115.525C111.631 119.117 105.6 122.742 99.7673 126.247C92.0644 130.877 84.0955 135.662 76.2955 140.436C74.8151 141.339 73.8319 141.112 72.4246 140.337C67.4831 137.61 62.5391 134.887 57.5932 132.169C47.762 126.76 37.5967 121.168 27.6231 115.624C23.6933 113.44 19.8316 111.168 15.7433 108.763C14.1121 107.804 12.451 106.827 10.7441 105.831L23.4532 97.0318C25.8617 98.3695 28.2617 99.7072 30.6532 101.044H30.6557ZM136.212 54.6355C129.398 59.4459 122.961 63.9902 116.226 68.2877C108.417 73.2721 100.323 78.1065 92.4962 82.7818C87.9864 85.4753 83.3233 88.2611 78.7624 91.0455C76.9596 92.1494 75.6508 92.1234 73.7684 90.9552C64.1887 85.0136 54.424 79.0201 44.9792 73.2279C37.0731 68.3766 28.8984 63.3577 20.8763 58.3993C18.2871 56.7986 15.8274 55.0642 13.2246 53.2265C12.2752 52.5577 11.3148 51.8841 10.3435 51.2057C12.5581 49.6906 14.7359 48.1947 16.8767 46.7181C22.2105 43.0466 27.2491 39.5752 32.412 36.1557C38.4474 32.1551 44.6149 28.1331 50.5798 24.2441C56.3861 20.4577 62.3892 16.5427 68.2663 12.6505L68.4541 12.5259C76.502 7.19469 76.5026 7.19664 85.1221 11.7817C102.287 20.9109 119.822 31.6414 141.979 46.5751C142.601 46.994 143.204 47.4765 143.968 48.0882C144.198 48.272 144.442 48.4674 144.706 48.6765C141.82 50.6759 138.972 52.6855 136.211 54.6355H136.212ZM25.1886 69.2513C26.863 70.3604 28.5403 71.4799 30.2202 72.6091C34.2115 75.2818 38.338 78.0468 42.4931 80.652C48.9745 84.7182 55.6073 88.7779 62.0234 92.7039C65.6914 94.9494 69.3596 97.1994 73.0273 99.4539C76.3156 101.484 79.2847 100.222 81.2325 99.0974C83.7718 97.6305 86.3138 96.1675 88.859 94.7091C96.8364 90.1286 105.086 85.3916 113.078 80.5247C120.001 76.3091 126.576 71.7636 133.84 66.6864C135.726 65.3682 136.941 65.3468 138.655 66.5929C140.568 67.9844 142.576 69.2598 144.701 70.6097C145.393 71.0487 146.103 71.502 146.83 71.9675C145.351 73.0214 143.914 74.0656 142.5 75.0929C138.927 77.6903 135.552 80.1422 132.013 82.3786C116.294 92.3247 102.452 100.895 89.6953 108.58C87.167 110.01 84.5337 111.245 81.8183 112.275C80.3554 112.873 78.8413 113.492 77.3856 114.165C76.3887 114.658 75.2838 114.889 74.1743 114.836C73.0642 114.782 71.9864 114.446 71.042 113.86C61.8293 108.877 52.6082 103.909 43.3785 98.9578C34.2826 94.0656 25.1911 89.1688 16.1038 84.2669C14.4434 83.3688 12.8304 82.2942 11.1195 81.1572C10.5266 80.7624 9.91742 80.3572 9.28307 79.9429L25.1886 69.2513Z" fill="black"/>
</g>
<defs>
<clipPath id="clip0">
<rect width="156" height="150" fill="white" transform="translate(0.777344)"/>
</clipPath>
</defs>
</svg>

<svg xmlns="http://www.w3.org/2000/svg" width="157" height="150" fill="none" viewBox="0 0 157 150"><g clip-path="url(#a)"><path fill="#000" d="M3.857 101.836c-1.812 1.231-2.714 2.389-2.842 3.645-.12 1.187.467 2.431 1.798 3.803a37.8 37.8 0 0 0 7.522 6.221 1358 1358 0 0 0 31.864 18.588c6.164 3.482 12.508 6.876 18.643 10.159a3057 3057 0 0 1 7.936 4.259 9.5 9.5 0 0 0 4.41 1.37c1-.002 1.983-.269 2.847-.775 4.66-2.657 9.718-5.598 15.46-8.994l7.686-4.546c17.348-10.259 35.286-20.863 52.896-31.354 2.565-1.528 4.035-3.785 4.034-6.193 0-2.453-1.518-4.758-4.159-6.325-2.27-1.347-4.601-2.662-7.069-4.051-.883-.498-1.791-1.01-2.733-1.544q1.629-1.194 3.178-2.322c2.774-2.027 5.394-3.94 7.991-5.88 2.296-1.714 3.489-3.888 3.356-6.121-.135-2.293-1.642-4.38-4.239-5.876a1304 1304 0 0 1-6.926-4.026l-2.46-1.435q1.281-.974 2.534-1.917c2.479-1.87 4.821-3.636 7.14-5.506 1.926-1.552 2.893-3.456 2.721-5.362-.177-1.97-1.537-3.74-3.831-4.986-3.093-1.68-5.874-3.21-8.578-4.93l-1.175-.748c-19.378-12.332-39.415-25.082-60.564-35.195-4.903-2.346-9.182-2.086-13.464.816-5.421 3.675-10.815 7.227-16.324 10.844q-8.695 5.715-17.398 11.412A11323 11323 0 0 0 5.403 43.722C2.83 45.42 1.56 47.041 1.407 48.825c-.149 1.738.821 3.564 2.964 5.585a91 91 0 0 0 7.81 6.328c1.051.79 2.103 1.58 3.139 2.386.688.536 1.412 1.026 2.179 1.547l.388.265a835 835 0 0 1-3.783 2.843c-3.35 2.51-6.514 4.88-9.62 7.385-2.178 1.753-3.188 3.32-3.18 4.923.01 1.615 1.053 3.185 3.284 4.944 1.748 1.377 3.633 2.616 5.456 3.815a126 126 0 0 1 3.323 2.236q1.103.81 2.11 1.738.23.206.47.416a771 771 0 0 0-3.333 2.398c-3.003 2.173-5.842 4.222-8.757 6.202m26.799-.792c5.631 3.143 11.457 6.393 17.208 9.509 2.977 1.612 6.028 3.187 8.982 4.711 3.819 1.97 7.767 4.007 11.572 6.137 3.846 2.151 7.728 2.289 12.59.448 12.899-4.884 24.533-11.79 34.206-17.9 4.634-2.928 9.126-5.883 13.887-9.011q3.02-1.985 6.104-4.004l11.115 6.853q-4.245 2.622-8.422 5.213c-6.983 4.327-13.577 8.414-20.351 12.525a4564 4564 0 0 1-17.78 10.722c-7.703 4.63-15.671 9.415-23.471 14.189-1.48.903-2.464.676-3.871-.099q-7.413-4.09-14.832-8.168c-9.831-5.409-19.996-11.001-29.97-16.545-3.93-2.184-7.791-4.456-11.88-6.861a1590 1590 0 0 0-4.999-2.932l12.71-8.8q3.612 2.007 7.2 4.013zm105.556-46.408c-6.814 4.81-13.251 9.354-19.986 13.652-7.809 4.984-15.903 9.819-23.73 14.494-4.51 2.693-9.173 5.48-13.734 8.264-1.802 1.103-3.111 1.077-4.994-.09A6746 6746 0 0 0 44.98 73.227c-7.906-4.851-16.08-9.87-24.103-14.829-2.589-1.6-5.049-3.335-7.651-5.172q-1.425-1.005-2.881-2.021 3.321-2.273 6.533-4.488c5.334-3.671 10.372-7.143 15.535-10.562 6.035-4 12.203-8.023 18.168-11.912 5.806-3.786 11.81-7.701 17.686-11.593l.188-.125c8.048-5.331 8.049-5.33 16.668-.744 17.165 9.129 34.7 19.86 56.857 34.793.622.419 1.225.901 1.989 1.513q.343.276.738.588c-2.886 2-5.734 4.01-8.495 5.96zM25.189 69.25a893 893 0 0 1 5.031 3.358c3.992 2.673 8.118 5.438 12.273 8.043 6.481 4.066 13.114 8.126 19.53 12.052q5.503 3.368 11.004 6.75c3.289 2.03 6.258.768 8.206-.357q3.808-2.2 7.626-4.388c7.977-4.58 16.227-9.317 24.219-14.184 6.923-4.216 13.498-8.761 20.762-13.839 1.886-1.318 3.101-1.34 4.815-.093 1.913 1.391 3.921 2.667 6.046 4.017q1.038.659 2.129 1.358c-1.479 1.053-2.916 2.098-4.33 3.125-3.573 2.597-6.948 5.05-10.487 7.286-15.719 9.946-29.561 18.516-42.318 26.201a57 57 0 0 1-7.877 3.695c-1.463.598-2.977 1.217-4.432 1.89a6.54 6.54 0 0 1-3.212.671 6.54 6.54 0 0 1-3.132-.976 9127 9127 0 0 0-27.663-14.902 25353 25353 0 0 1-27.275-14.691c-1.66-.898-3.274-1.973-4.984-3.11q-.888-.593-1.837-1.214z"/></g><defs><clipPath id="a"><path fill="#fff" d="M.777 0h156v150h-156z"/></clipPath></defs></svg>
